/* XPM */
static char * blue_butterfly_xpm[] = {
"20 15 181 2",
"  	c None",
". 	c #465996",
"+ 	c #155BB3",
"@ 	c #1262AC",
"# 	c #0F4AA6",
"$ 	c #1457AE",
"% 	c #0A4EA9",
"& 	c #595C69",
"* 	c #294588",
"= 	c #0F6DCE",
"- 	c #117CD0",
"; 	c #148ED5",
"> 	c #1782C6",
", 	c #206E9D",
"' 	c #1873B6",
") 	c #107AD1",
"! 	c #1278D0",
"~ 	c #1176CE",
"{ 	c #0F61BB",
"] 	c #2F3345",
"^ 	c #2A2C35",
"/ 	c #1074CA",
"( 	c #147ECB",
"_ 	c #17ACDC",
": 	c #15A9E0",
"< 	c #188DCF",
"[ 	c #196D9A",
"} 	c #1585C2",
"| 	c #17A0D8",
"1 	c #18A3D9",
"2 	c #178AC8",
"3 	c #188BCE",
"4 	c #2A5F93",
"5 	c #29374A",
"6 	c #137ECF",
"7 	c #168FD2",
"8 	c #1892CD",
"9 	c #1BABD7",
"0 	c #16ACE0",
"a 	c #1A8DCA",
"b 	c #1983B6",
"c 	c #16A2D6",
"d 	c #19AAD9",
"e 	c #19AAD6",
"f 	c #16B4E4",
"g 	c #1896D4",
"h 	c #115E97",
"i 	c #0A52A2",
"j 	c #1381D0",
"k 	c #1598D6",
"l 	c #16A2DB",
"m 	c #18B3E1",
"n 	c #17A9DB",
"o 	c #1A8BB9",
"p 	c #27779B",
"q 	c #18A7D9",
"r 	c #16B7E2",
"s 	c #15C1EA",
"t 	c #17B4E2",
"u 	c #17A8D9",
"v 	c #1786CB",
"w 	c #192230",
"x 	c #0958A6",
"y 	c #0F86D9",
"z 	c #1293D9",
"A 	c #159CDA",
"B 	c #15A5DB",
"C 	c #15B2E1",
"D 	c #1AAEDD",
"E 	c #2D748D",
"F 	c #1B9DC5",
"G 	c #13BFE7",
"H 	c #15C3EB",
"I 	c #15B8E2",
"J 	c #18B4E2",
"K 	c #1799D5",
"L 	c #1381CC",
"M 	c #121F3B",
"N 	c #323949",
"O 	c #0D87DD",
"P 	c #109FE2",
"Q 	c #14AFE4",
"R 	c #12ACE6",
"S 	c #13AFE2",
"T 	c #16B1E2",
"U 	c #1D8EAD",
"V 	c #23464F",
"W 	c #16C9EC",
"X 	c #12CCF0",
"Y 	c #14D1F5",
"Z 	c #14D0F5",
"` 	c #15CAF2",
" .	c #2D7BA3",
"..	c #0E77D3",
"+.	c #1080D4",
"@.	c #11AEE2",
"#.	c #12B7E7",
"$.	c #16BBEA",
"%.	c #1297BE",
"&.	c #1683A0",
"*.	c #1D5D6B",
"=.	c #11A6C1",
"-.	c #14C8E7",
";.	c #13D1F5",
">.	c #0FCBEE",
",.	c #13C7EF",
"'.	c #14ABE5",
").	c #1D5FA6",
"!.	c #0F498E",
"~.	c #1C6BBA",
"{.	c #168DC6",
"].	c #1E88B6",
"^.	c #1792BF",
"/.	c #17A7D3",
"(.	c #21ACCD",
"_.	c #3B8FA5",
":.	c #17C4E3",
"<.	c #16B9D6",
"[.	c #1FB1CC",
"}.	c #18AAC9",
"|.	c #24ADD2",
"1.	c #0A5AB0",
"2.	c #1E5E9D",
"3.	c #1672B9",
"4.	c #149AD6",
"5.	c #19A8DA",
"6.	c #17B5E1",
"7.	c #1CACD0",
"8.	c #388597",
"9.	c #15CAEB",
"0.	c #19CBED",
"a.	c #13CBEE",
"b.	c #16C8E7",
"c.	c #1BB0CD",
"d.	c #143E74",
"e.	c #1174CC",
"f.	c #1589CE",
"g.	c #14A8DA",
"h.	c #16B8E7",
"i.	c #17BBE2",
"j.	c #219FC1",
"k.	c #2F6473",
"l.	c #14D2F4",
"m.	c #14CBEF",
"n.	c #12C9EB",
"o.	c #14CBEE",
"p.	c #15CCEF",
"q.	c #1066A9",
"r.	c #0C60B3",
"s.	c #1495D8",
"t.	c #14B8E7",
"u.	c #18BAE3",
"v.	c #16C6EF",
"w.	c #18C6EC",
"x.	c #18CBEC",
"y.	c #13D0F4",
"z.	c #13CFF4",
"A.	c #11B5EA",
"B.	c #11386B",
"C.	c #125AA3",
"D.	c #149FDC",
"E.	c #17BEEA",
"F.	c #16C0E8",
"G.	c #13A9DC",
"H.	c #22A2CD",
"I.	c #13C4ED",
"J.	c #15CAEA",
"K.	c #13CDF3",
"L.	c #0E80CE",
"M.	c #0F7ACF",
"N.	c #13BFEB",
"O.	c #13B9EB",
"P.	c #1988CC",
"Q.	c #15C5EE",
"R.	c #13CBF2",
"S.	c #266CAC",
"T.	c #164391",
"U.	c #1793C7",
"V.	c #2B7ECB",
"W.	c #136BC2",
"X.	c #117CB3",
"  . + @                         # $ % & ",
"  * = - ; > ,               ' ) ! ~ { ] ",
"  ^ / ( _ : < [           } | 1 2 3 4   ",
"  5 6 7 8 9 0 a         b c d e f g h   ",
"    i j k l m n o     p q r s t u v w   ",
"    x y z A B C D E   F G H I J K L M   ",
"    N O P Q R S T U V W X Y Z Z `  .    ",
"      ..+.@.#.$.%.&.*.=.-.;.>.,.'.).    ",
"      !.~.{.].^./.(._.:.<.[.}.|.1.      ",
"        2.3.4.5.6.7.8.9.0.a.b.c.        ",
"      d.e.f.g.h.i.j.k.l.m.n.o.p.q.      ",
"        r.s.t.u.v.    w.x.y.z.A.B.      ",
"        C.D.E.F.G.    H.I.J.K.L.        ",
"          M.N.O.        P.Q.R.S.        ",
"          T.U.V.          W.X.          "};
