/* XPM */
static char * ergo_xpm[] = {
"40 40 280 2",
"  	c None",
". 	c #97BDCD",
"+ 	c #A0C1D0",
"@ 	c #ACCDDA",
"# 	c #6F91A0",
"$ 	c #74A5B8",
"% 	c #A5CAD7",
"& 	c #84AEBD",
"* 	c #5E95AA",
"= 	c #3C7289",
"- 	c #2C5265",
"; 	c #68A0B5",
"> 	c #90BDCC",
", 	c #A2C7D5",
"' 	c #87B1C0",
") 	c #548498",
"! 	c #38677B",
"~ 	c #305F75",
"{ 	c #5F9AB0",
"] 	c #95BCCB",
"^ 	c #71A0B1",
"/ 	c #5F9BB1",
"( 	c #5A92A8",
"_ 	c #2D5C73",
": 	c #274F65",
"< 	c #356A86",
"[ 	c #2C596F",
"} 	c #5F9CB2",
"| 	c #659EB4",
"1 	c #568FA5",
"2 	c #4E869C",
"3 	c #437F99",
"4 	c #316782",
"5 	c #326983",
"6 	c #2F6078",
"7 	c #30637B",
"8 	c #2C5F78",
"9 	c #356E86",
"0 	c #4A839B",
"a 	c #5E94AA",
"b 	c #91BCCB",
"c 	c #448199",
"d 	c #3B7A95",
"e 	c #408099",
"f 	c #295C76",
"g 	c #336D88",
"h 	c #36718C",
"i 	c #3E7A95",
"j 	c #2E617A",
"k 	c #4A94AE",
"l 	c #5089A0",
"m 	c #75A6B8",
"n 	c #72A6B9",
"o 	c #87B5C6",
"p 	c #4F94AC",
"q 	c #4B91AA",
"r 	c #5695AB",
"s 	c #2B617B",
"t 	c #336B85",
"u 	c #3A7A95",
"v 	c #4D8FAA",
"w 	c #397693",
"x 	c #2E6984",
"y 	c #478199",
"z 	c #467F98",
"A 	c #568EA4",
"B 	c #4F849A",
"C 	c #407891",
"D 	c #58A0B5",
"E 	c #90C0CF",
"F 	c #78ADBF",
"G 	c #76A8B9",
"H 	c #2F6883",
"I 	c #377390",
"J 	c #37718D",
"K 	c #4189A7",
"L 	c #3D849F",
"M 	c #2B5F78",
"N 	c #437E97",
"O 	c #4A849C",
"P 	c #6296AB",
"Q 	c #6392A5",
"R 	c #345E71",
"S 	c #3E7B92",
"T 	c #6EAEC3",
"U 	c #9AC6D4",
"V 	c #80AFC0",
"W 	c #377692",
"X 	c #357495",
"Y 	c #3D84A4",
"Z 	c #366F88",
"` 	c #38718A",
" .	c #2E6079",
"..	c #3D748C",
"+.	c #356D87",
"@.	c #528AA2",
"#.	c #78A8BA",
"$.	c #6A99AB",
"%.	c #345B6D",
"&.	c #21495E",
"*.	c #6899AB",
"=.	c #A0C9D6",
"-.	c #6FA1B4",
";.	c #3C809B",
">.	c #4290B4",
",.	c #4391B1",
"'.	c #3E839E",
").	c #386980",
"!.	c #3F6E85",
"~.	c #43788F",
"{.	c #376D86",
"].	c #427B94",
"^.	c #558CA3",
"/.	c #8DB9C9",
"(.	c #6195A8",
"_.	c #365F70",
":.	c #2B5469",
"<.	c #3D7690",
"[.	c #79A7B7",
"}.	c #5C9BB2",
"|.	c #499EBE",
"1.	c #4EA1C2",
"2.	c #54A8C6",
"3.	c #4485A0",
"4.	c #5391AA",
"5.	c #649CB1",
"6.	c #679BAF",
"7.	c #3C728A",
"8.	c #346C86",
"9.	c #468098",
"0.	c #558DA4",
"a.	c #8CBBCB",
"b.	c #5795AB",
"c.	c #447A92",
"d.	c #3A6981",
"e.	c #407790",
"f.	c #4B87A0",
"g.	c #529AB1",
"h.	c #67B7D3",
"i.	c #65B5D2",
"j.	c #5BA9C8",
"k.	c #4988A6",
"l.	c #3E80A8",
"m.	c #5698B3",
"n.	c #8DBDCB",
"o.	c #5B8CA1",
"p.	c #6095AA",
"q.	c #7DADBF",
"r.	c #5899B0",
"s.	c #4C859D",
"t.	c #3D7A97",
"u.	c #3B7998",
"v.	c #336B87",
"w.	c #38748D",
"x.	c #4486A1",
"y.	c #59A3C0",
"z.	c #59A4C3",
"A.	c #4E94B8",
"B.	c #4287B1",
"C.	c #3C7FA7",
"D.	c #5095B4",
"E.	c #4D89A1",
"F.	c #346B85",
"G.	c #478098",
"H.	c #75A4B6",
"I.	c #85B4C4",
"J.	c #60A0B6",
"K.	c #3F7E97",
"L.	c #296284",
"M.	c #285F7E",
"N.	c #295F7C",
"O.	c #275C79",
"P.	c #32708C",
"Q.	c #4B90AE",
"R.	c #4F98B9",
"S.	c #4088B2",
"T.	c #3A7DA7",
"U.	c #3C80A9",
"V.	c #367190",
"W.	c #3A7790",
"X.	c #4C869E",
"Y.	c #76A0B2",
"Z.	c #487387",
"`.	c #427890",
" +	c #458FA8",
".+	c #2A607C",
"++	c #24546D",
"@+	c #275B76",
"#+	c #275F7D",
"$+	c #245B79",
"%+	c #22536F",
"&+	c #30719A",
"*+	c #3379A8",
"=+	c #3477A0",
"-+	c #4F99BF",
";+	c #498FAB",
">+	c #346D87",
",+	c #528BA3",
"'+	c #5C8EA3",
")+	c #366177",
"!+	c #224659",
"~+	c #29576C",
"{+	c #1E485F",
"]+	c #265976",
"^+	c #275975",
"/+	c #316A87",
"(+	c #2E5F7B",
"_+	c #1F4D68",
":+	c #235C80",
"<+	c #25638B",
"[+	c #2A6990",
"}+	c #4E9DBC",
"|+	c #61A7BF",
"1+	c #578EA5",
"2+	c #6493A6",
"3+	c #36596C",
"4+	c #1B3A4E",
"5+	c #16384E",
"6+	c #1A4662",
"7+	c #316D8E",
"8+	c #307092",
"9+	c #215A80",
"0+	c #266388",
"a+	c #225A7D",
"b+	c #1C4D6C",
"c+	c #215775",
"d+	c #3D8FA5",
"e+	c #66A2B4",
"f+	c #5B92A8",
"g+	c #5C8697",
"h+	c #1A3A4E",
"i+	c #16374D",
"j+	c #18394E",
"k+	c #2A6589",
"l+	c #266691",
"m+	c #235D83",
"n+	c #1B4A67",
"o+	c #194561",
"p+	c #2F6A85",
"q+	c #37728B",
"r+	c #52899F",
"s+	c #23475A",
"t+	c #19394E",
"u+	c #183C52",
"v+	c #1B4864",
"w+	c #205678",
"x+	c #1A4763",
"y+	c #235A76",
"z+	c #376F88",
"A+	c #305D73",
"B+	c #1C3D50",
"C+	c #193B51",
"D+	c #183A4F",
"E+	c #143346",
"F+	c #16364B",
"G+	c #19425C",
"H+	c #32819A",
"I+	c #3E8DA4",
"J+	c #497E94",
"K+	c #1C3E52",
"L+	c #19384B",
"M+	c #16374C",
"N+	c #0A1E2D",
"O+	c #0A1F2E",
"P+	c #1C475E",
"Q+	c #3F96AD",
"R+	c #2C5971",
"S+	c #183749",
"T+	c #091D2C",
"U+	c #0B2030",
"V+	c #14394F",
"W+	c #327E95",
"X+	c #376981",
"Y+	c #214559",
"Z+	c #163548",
"`+	c #15394C",
" @	c #32728B",
".@	c #22475A",
"+@	c #245066",
"@@	c #35718A",
"                                                                                ",
"                                                                                ",
"                                                                                ",
"                                                                                ",
"                                                                                ",
"                                                                                ",
"                                                                                ",
"                                            .                                   ",
"                                        + @ #                                   ",
"                                    $ % & * = -                                 ",
"                                  ; > , ' ) ! ~                                 ",
"                                { ] ^ / ( _ : < [                               ",
"                              } | 1 2 3 4 5 6 7 8 9                             ",
"                          0 a b { c d e f g h i j k                             ",
"                          l m n o p q r s t u v w x y                           ",
"                        z A B C D E F G H I J K L M N                           ",
"                        O P Q R S T U V W X Y Z `  ...+.                        ",
"                        @.#.$.%.&.*.=.-.;.>.,.'.).!.~.{.                        ",
"                      ].^./.(._.:.<.[.}.|.1.2.3.4.5.6.7.8.                      ",
"                      9.0.a.b.c.d.e.f.g.h.i.j.k.l.m.n.o.8.                      ",
"                      y p.q.r.s.t.u.v.w.x.y.z.A.B.C.D.E.F.                      ",
"                      G.H.I.J.K.L.M.N.O.P.Q.R.S.T.U.V.W.                        ",
"                      X.Y.Z.`. +.+++@+#+$+%+&+*+=+-+;+>+                        ",
"                      ,+'+)+!+~+{+]+^+/+(+_+:+<+[+}+|+                          ",
"                        1+2+3+4+5+6+7+8+9+0+a+b+c+d+e+                          ",
"                          f+g+h+i+j+_+k+l+m+n+o+p+q+                            ",
"                            r+s+t+u+j+v+w+v+x+y+z+                              ",
"                              A+B+C+D+E+F+G+H+I+                                ",
"                              J+K+L+M+N+O+P+Q+                                  ",
"                                R+S+T+U+V+W+                                    ",
"                                X+Y+Z+`+ @                                      ",
"                                  .@+@@@                                        ",
"                                  .@+@                                          ",
"                                                                                ",
"                                                                                ",
"                                                                                ",
"                                                                                ",
"                                                                                ",
"                                                                                ",
"                                                                                "};
