/* XPM */
static char * gemini_xpm[] = {
"40 40 345 2",
"  	c None",
". 	c #948177",
"+ 	c #A28F86",
"@ 	c #6D6254",
"# 	c #978D83",
"$ 	c #A2896E",
"% 	c #918375",
"& 	c #AD916D",
"* 	c #544B3E",
"= 	c #8F7B62",
"- 	c #594F42",
"; 	c #474435",
"> 	c #444232",
", 	c #6F5E49",
"' 	c #40342C",
") 	c #A18B6A",
"! 	c #95836B",
"~ 	c #806F61",
"{ 	c #3C322B",
"] 	c #474234",
"^ 	c #9A8362",
"/ 	c #8A745B",
"( 	c #9F8B74",
"_ 	c #958373",
": 	c #3B332D",
"< 	c #362E2A",
"[ 	c #413F2E",
"} 	c #8C755B",
"| 	c #9F8B72",
"1 	c #887964",
"2 	c #B09D81",
"3 	c #856E5B",
"4 	c #3D3029",
"5 	c #1F1616",
"6 	c #242019",
"7 	c #A29070",
"8 	c #8F775E",
"9 	c #856A4E",
"0 	c #B7A389",
"a 	c #C0AF94",
"b 	c #A9977C",
"c 	c #8C7762",
"d 	c #57473B",
"e 	c #2D241E",
"f 	c #312B21",
"g 	c #AF9C7E",
"h 	c #B1997A",
"i 	c #C3AA88",
"j 	c #CDBDA0",
"k 	c #CDBDA3",
"l 	c #C1B096",
"m 	c #94826D",
"n 	c #625144",
"o 	c #3C312A",
"p 	c #2D231C",
"q 	c #625648",
"r 	c #9B8C6F",
"s 	c #B59E80",
"t 	c #D3BE9A",
"u 	c #C4B397",
"v 	c #CBC0A7",
"w 	c #B8AD97",
"x 	c #B8A992",
"y 	c #91806C",
"z 	c #58493C",
"A 	c #51463F",
"B 	c #372D25",
"C 	c #473E37",
"D 	c #6E6751",
"E 	c #685A3E",
"F 	c #7E684B",
"G 	c #B29D7A",
"H 	c #C0AD94",
"I 	c #C4B4A3",
"J 	c #B9A999",
"K 	c #A49685",
"L 	c #7A6C5C",
"M 	c #54483A",
"N 	c #3D322A",
"O 	c #342A22",
"P 	c #4B403A",
"Q 	c #5B533F",
"R 	c #B19D71",
"S 	c #BEA37C",
"T 	c #BCA67A",
"U 	c #746144",
"V 	c #463A2D",
"W 	c #62584D",
"X 	c #706558",
"Y 	c #6A5E4C",
"Z 	c #5D5241",
"` 	c #3B2F23",
" .	c #3B3125",
"..	c #453A32",
"+.	c #564B41",
"@.	c #BDB977",
"#.	c #BBAF77",
"$.	c #B29F73",
"%.	c #AB9870",
"&.	c #8E7E5D",
"*.	c #675745",
"=.	c #524433",
"-.	c #4B4032",
";.	c #332A1F",
">.	c #241C0E",
",.	c #2F2916",
"'.	c #2F2717",
").	c #362D24",
"!.	c #504741",
"~.	c #BCB972",
"{.	c #C6BF78",
"].	c #BAAB7A",
"^.	c #9F8F70",
"/.	c #85765B",
"(.	c #857962",
"_.	c #766A58",
":.	c #69604E",
"<.	c #554D39",
"[.	c #4E472E",
"}.	c #50492D",
"|.	c #3A331C",
"1.	c #373020",
"2.	c #514E34",
"3.	c #CCCD71",
"4.	c #E9E882",
"5.	c #CCC085",
"6.	c #A3926F",
"7.	c #958A6B",
"8.	c #847B5A",
"9.	c #7C7157",
"0.	c #81775D",
"a.	c #726E47",
"b.	c #949255",
"c.	c #686436",
"d.	c #4B462D",
"e.	c #363020",
"f.	c #4F4B2F",
"g.	c #D8D77E",
"h.	c #F6F39C",
"i.	c #D1C589",
"j.	c #A99C66",
"k.	c #D4CE86",
"l.	c #C4BC7F",
"m.	c #A1A161",
"n.	c #606137",
"o.	c #68643E",
"p.	c #BBB86E",
"q.	c #C5C671",
"r.	c #5C5838",
"s.	c #48402C",
"t.	c #635E37",
"u.	c #938B4D",
"v.	c #EEED96",
"w.	c #F2EDA5",
"x.	c #B9AE7E",
"y.	c #EDE4AE",
"z.	c #FFFBC4",
"A.	c #DCD596",
"B.	c #9E9565",
"C.	c #777147",
"D.	c #6D633F",
"E.	c #665D36",
"F.	c #A3A05F",
"G.	c #4C482D",
"H.	c #393621",
"I.	c #AEA761",
"J.	c #E7DF94",
"K.	c #E6DFA1",
"L.	c #CAC099",
"M.	c #EBE6C1",
"N.	c #FEFDD8",
"O.	c #BFBA8A",
"P.	c #9D9062",
"Q.	c #6F613F",
"R.	c #64532E",
"S.	c #645639",
"T.	c #5A5030",
"U.	c #312B19",
"V.	c #262717",
"W.	c #D8D18A",
"X.	c #BBAA76",
"Y.	c #9D8E6E",
"Z.	c #A4977E",
"`.	c #E2DBBE",
" +	c #F6F4D5",
".+	c #C4BC8E",
"++	c #99945D",
"@+	c #C2BE5B",
"#+	c #786D2F",
"$+	c #594A2F",
"%+	c #4D4129",
"&+	c #261E10",
"*+	c #373920",
"=+	c #E6DFA2",
"-+	c #978162",
";+	c #AD9982",
">+	c #AA9A88",
",+	c #8C7F64",
"'+	c #C6BD94",
")+	c #A8A072",
"!+	c #BCBB66",
"~+	c #D8DC5E",
"{+	c #9F9D4A",
"]+	c #6F634D",
"^+	c #3B2F1C",
"/+	c #271E17",
"(+	c #C8C08A",
"_+	c #A48567",
":+	c #A49177",
"<+	c #82725E",
"[+	c #726148",
"}+	c #E0DDB9",
"|+	c #E3E3B6",
"1+	c #B3B360",
"2+	c #C5C964",
"3+	c #AAA96A",
"4+	c #675D51",
"5+	c #32271A",
"6+	c #201B15",
"7+	c #DBD88D",
"8+	c #B2A673",
"9+	c #9A7A5C",
"0+	c #715C45",
"a+	c #61513A",
"b+	c #6F5D3E",
"c+	c #E5E1C5",
"d+	c #FAFAD2",
"e+	c #D3D28B",
"f+	c #A2A453",
"g+	c #7E803E",
"h+	c #4F442B",
"i+	c #2D2217",
"j+	c #282518",
"k+	c #BFB578",
"l+	c #A69663",
"m+	c #7F6247",
"n+	c #5A4634",
"o+	c #57462F",
"p+	c #8B7E5E",
"q+	c #F8F7D8",
"r+	c #F7F7C9",
"s+	c #EBEF9F",
"t+	c #BFC767",
"u+	c #8B8E41",
"v+	c #50452C",
"w+	c #2F2519",
"x+	c #2F2F1B",
"y+	c #A99E66",
"z+	c #B7AF63",
"A+	c #7B6A4C",
"B+	c #6E614C",
"C+	c #94886C",
"D+	c #CAC39A",
"E+	c #F3F2C8",
"F+	c #E7E9A1",
"G+	c #DFE386",
"H+	c #9DA04F",
"I+	c #6B693A",
"J+	c #3C3220",
"K+	c #2B2415",
"L+	c #AAA562",
"M+	c #C6C662",
"N+	c #7D7351",
"O+	c #877D62",
"P+	c #BBB97F",
"Q+	c #D7D68E",
"R+	c #B2AB79",
"S+	c #BAB864",
"T+	c #CCCE66",
"U+	c #7D793A",
"V+	c #3B341C",
"W+	c #312C15",
"X+	c #292313",
"Y+	c #A8A265",
"Z+	c #A8A06A",
"`+	c #9E9A5D",
" @	c #6B5737",
".@	c #8D8748",
"+@	c #D3D36E",
"@@	c #B2B154",
"#@	c #837F49",
"$@	c #6D6331",
"%@	c #94904E",
"&@	c #484121",
"*@	c #2C2419",
"=@	c #30291B",
"-@	c #2B2414",
";@	c #6B623F",
">@	c #756751",
",@	c #7A6952",
"'@	c #827056",
")@	c #908A51",
"!@	c #9D9955",
"~@	c #9C9651",
"{@	c #8E8A4D",
"]@	c #7E774E",
"^@	c #4F492A",
"/@	c #3C3922",
"(@	c #241C13",
"_@	c #2C2518",
":@	c #2C2811",
"<@	c #635B37",
"[@	c #5D4D38",
"}@	c #4B3E30",
"|@	c #716553",
"1@	c #797550",
"2@	c #7E784B",
"3@	c #8A8057",
"4@	c #9A9365",
"5@	c #605C3D",
"6@	c #4E4B33",
"7@	c #353220",
"8@	c #25220F",
"9@	c #261E0F",
"0@	c #776C42",
"a@	c #534830",
"b@	c #302821",
"c@	c #342E21",
"d@	c #58513B",
"e@	c #7C7359",
"f@	c #686044",
"g@	c #453E26",
"h@	c #342F1C",
"i@	c #3A3A1A",
"j@	c #201A0A",
"k@	c #42402A",
"l@	c #3A3428",
"m@	c #373026",
"n@	c #352E21",
"o@	c #302A18",
"p@	c #302A15",
"q@	c #302A19",
"r@	c #262010",
"s@	c #4A4926",
"t@	c #211C0D",
"u@	c #161407",
"v@	c #413D2D",
"w@	c #3B3628",
"x@	c #3B3622",
"y@	c #2D2614",
"z@	c #251F10",
"A@	c #251E10",
"B@	c #282313",
"C@	c #201E0F",
"D@	c #3A3B1E",
"                                                                                ",
"                                                                                ",
"                                                                                ",
"                                                . +                             ",
"                                              @     #                           ",
"                                            $         %                         ",
"                                            &         *                         ",
"                                              = - ; >                           ",
"                                              , '                               ",
"                                          ) ! ~ { ]                             ",
"                                        ^ / ( _ : < [                           ",
"                                      } | 1 2 3 4 5 6                           ",
"                                  7 8 9 0 a b c d e f                           ",
"                                  g h i j k l m n o p q                         ",
"                                r s t u v w x y z A B C D                       ",
"                                E F G H I J K L M N O P Q                       ",
"                                R S T U V W X Y Z `  ...+.                      ",
"                              @.#.$.%.&.*.=.-.;.>.,.'.).!.                      ",
"                              ~.{.].^./.(._.:.<.[.}.|.1.2.                      ",
"                              3.4.5.6.7.8.9.0.a.b.c.d.e.f.                      ",
"                              g.h.i.j.k.l.m.n.o.p.q.r.s.t.                      ",
"                            u.v.w.x.y.z.A.B.C.D.E.F.G.H.                        ",
"                            I.J.K.L.M.N.O.P.Q.R.S.T.U.V.                        ",
"                            W.X.Y.Z.`. +.+++@+#+$+%+&+*+                        ",
"                            =+-+;+>+,+'+)+!+~+{+]+^+/+                          ",
"                            (+_+:+<+[+}+|+1+2+3+4+5+6+                          ",
"                          7+8+9+0+a+b+c+d+e+f+g+h+i+j+                          ",
"                          k+l+m+n+o+p+q+r+s+t+u+v+w+x+                          ",
"                          y+z+A+B+C+D+E+F+G+H+I+J+K+                            ",
"                          L+M+N+O+P+Q+R+S+T+U+V+W+X+                            ",
"                        Y+Z+`+ @.@+@@@#@$@%@&@*@=@-@                            ",
"                        ;@>@,@'@)@!@~@{@]@^@/@(@_@:@                            ",
"                        <@[@}@|@1@2@3@4@5@6@7@8@9@                              ",
"                          0@a@b@c@d@e@f@g@h@i@i@j@                              ",
"                            k@l@m@n@o@p@q@r@s@t@u@                              ",
"                                v@w@x@y@z@A@B@C@D@                              ",
"                                                                                ",
"                                                                                ",
"                                                                                ",
"                                                                                "};
