/* XPM */
static char * lies_of_p_xpm[] = {
"94 45 308 2",
"  	c None",
". 	c #B53A3A",
"+ 	c #C03D3E",
"@ 	c #AE2E2F",
"# 	c #C43C3B",
"$ 	c #C43C3A",
"% 	c #C23938",
"& 	c #C93B3C",
"* 	c #CC3C3A",
"= 	c #CF3A3A",
"- 	c #C83B3B",
"; 	c #B93C3B",
"> 	c #B73131",
", 	c #B33233",
"' 	c #B33636",
") 	c #C03737",
"! 	c #C53A3A",
"~ 	c #C43938",
"{ 	c #CC3B3B",
"] 	c #D33838",
"^ 	c #D63636",
"/ 	c #BA3635",
"( 	c #F3F3F3",
"_ 	c #AA3939",
": 	c #B53030",
"< 	c #B42E2E",
"[ 	c #B23332",
"} 	c #882825",
"| 	c #A92F2E",
"1 	c #B83534",
"2 	c #C63B3D",
"3 	c #C73B3B",
"4 	c #CB393A",
"5 	c #D83B3B",
"6 	c #D33939",
"7 	c #E8E8E8",
"8 	c #B63032",
"9 	c #BC2E2F",
"0 	c #B22F2E",
"a 	c #6E1D1E",
"b 	c #AF3938",
"c 	c #CC3B3C",
"d 	c #D53D3D",
"e 	c #C83F3E",
"f 	c #F2F2F2",
"g 	c #FAFAFA",
"h 	c #CB3536",
"i 	c #CA2E2E",
"j 	c #BD302F",
"k 	c #C03C3A",
"l 	c #C73A39",
"m 	c #CB3A39",
"n 	c #EAEAEA",
"o 	c #F1F1F1",
"p 	c #F6F6F6",
"q 	c #CD3130",
"r 	c #D13131",
"s 	c #C73432",
"t 	c #C33C3D",
"u 	c #C43839",
"v 	c #BF3736",
"w 	c #AD3635",
"x 	c #CC3332",
"y 	c #D13435",
"z 	c #CC3635",
"A 	c #C5393A",
"B 	c #C43737",
"C 	c #C33C3C",
"D 	c #F5F5F5",
"E 	c #CE3334",
"F 	c #CA3536",
"G 	c #C6393A",
"H 	c #CA3D3D",
"I 	c #BC3A3A",
"J 	c #F4F4F4",
"K 	c #A6A6A4",
"L 	c #B2B2B0",
"M 	c #D6D6D6",
"N 	c #F7F7F7",
"O 	c #F8F8F8",
"P 	c #D5D5D5",
"Q 	c #CA3232",
"R 	c #CA3737",
"S 	c #C73A3A",
"T 	c #C63939",
"U 	c #BC3837",
"V 	c #EFEFEF",
"W 	c #A9A9A9",
"X 	c #9FA09D",
"Y 	c #B2B2AF",
"Z 	c #D7D7D7",
"` 	c #EBEBEB",
" .	c #ECECEC",
"..	c #EEEDEE",
"+.	c #E6E6E6",
"@.	c #CB3637",
"#.	c #D23938",
"$.	c #CC3A3A",
"%.	c #B93939",
"&.	c #F0F0F0",
"*.	c #E7E7E7",
"=.	c #DDDDDD",
"-.	c #EAEBEB",
";.	c #D8D7D8",
">.	c #E4E4E4",
",.	c #EEEEEE",
"'.	c #CAC9C9",
").	c #AFADAD",
"!.	c #8E8E8E",
"~.	c #AEAEAE",
"{.	c #BBBBBB",
"].	c #D0D0D0",
"^.	c #C93737",
"/.	c #CE3A39",
"(.	c #C83939",
"_.	c #C23838",
":.	c #C4393A",
"<.	c #B13534",
"[.	c #EDEDED",
"}.	c #929292",
"|.	c #CACACA",
"1.	c #E9E9E9",
"2.	c #E0E0E0",
"3.	c #DADADA",
"4.	c #C9C9C9",
"5.	c #B1B1B1",
"6.	c #A8A8A8",
"7.	c #FAF9FA",
"8.	c #E5E5E5",
"9.	c #979797",
"0.	c #B8B8B8",
"a.	c #C4C4C4",
"b.	c #D4D4D4",
"c.	c #E3E3E3",
"d.	c #C83737",
"e.	c #CD3939",
"f.	c #CA3A3B",
"g.	c #D04D4E",
"h.	c #B93434",
"i.	c #B93534",
"j.	c #AF3332",
"k.	c #B4B4B4",
"l.	c #939393",
"m.	c #C0C0C0",
"n.	c #BABABA",
"o.	c #CBCBCB",
"p.	c #B2B2B2",
"q.	c #C5C5C5",
"r.	c #C8C8C8",
"s.	c #A6A6A6",
"t.	c #B9B9B9",
"u.	c #CFCFCF",
"v.	c #D8D8D8",
"w.	c #DFDFDF",
"x.	c #E1E2E1",
"y.	c #C43838",
"z.	c #C43736",
"A.	c #C63A3A",
"B.	c #CE4242",
"C.	c #B24140",
"D.	c #AC3130",
"E.	c #AD2E2E",
"F.	c #A92D2C",
"G.	c #E1E1E1",
"H.	c #DEDEDE",
"I.	c #CCCCCC",
"J.	c #9B9B9B",
"K.	c #D3D3D3",
"L.	c #DCDCDC",
"M.	c #DBDBDB",
"N.	c #E4E4E3",
"O.	c #C33B3B",
"P.	c #C33837",
"Q.	c #C73536",
"R.	c #CC3B3A",
"S.	c #AA2B2B",
"T.	c #9F2425",
"U.	c #9C2322",
"V.	c #912628",
"W.	c #BDBDBD",
"X.	c #A7A7A7",
"Y.	c #FCFCFC",
"Z.	c #EAEAE8",
"`.	c #EEEEEC",
" +	c #F1F1F0",
".+	c #C84949",
"++	c #C23C3C",
"@+	c #B83536",
"#+	c #B63536",
"$+	c #B73736",
"%+	c #B53536",
"&+	c #BA3736",
"*+	c #C03331",
"=+	c #C23030",
"-+	c #C93130",
";+	c #D73436",
">+	c #B42728",
",+	c #952929",
"'+	c #E2E2E2",
")+	c #BF4747",
"!+	c #A83737",
"~+	c #80201F",
"{+	c #8A2424",
"]+	c #7C2222",
"^+	c #973030",
"/+	c #B83233",
"(+	c #CC2D2D",
"_+	c #D82E2D",
":+	c #C42F2F",
"<+	c #DDDCDC",
"[+	c #AFB0B0",
"}+	c #E9EBE9",
"|+	c #F9F9F9",
"1+	c #B3B3B3",
"2+	c #972928",
"3+	c #9D2928",
"4+	c #9A2B2A",
"5+	c #C83333",
"6+	c #D2D3D2",
"7+	c #A4A4A4",
"8+	c #F2F3F3",
"9+	c #E6E6E4",
"0+	c #E9E9E8",
"a+	c #C2C2C2",
"b+	c #A12C2B",
"c+	c #A82D2C",
"d+	c #AA3131",
"e+	c #D8D9D8",
"f+	c #AFAFAF",
"g+	c #D9D9D9",
"h+	c #D2D2D2",
"i+	c #B0B0AF",
"j+	c #E2E3E3",
"k+	c #E6E8E7",
"l+	c #E9EBEA",
"m+	c #E9EAE7",
"n+	c #B13C3C",
"o+	c #AF2F2E",
"p+	c #B83331",
"q+	c #B73233",
"r+	c #C3C3C3",
"s+	c #BEBEBE",
"t+	c #BFBFBF",
"u+	c #C1C1C1",
"v+	c #D4D6D5",
"w+	c #E2E2E1",
"x+	c #F1F1EF",
"y+	c #B93333",
"z+	c #BC3231",
"A+	c #BB3636",
"B+	c #ACACAC",
"C+	c #EAEBE9",
"D+	c #CECECE",
"E+	c #BD3434",
"F+	c #C33535",
"G+	c #C03837",
"H+	c #A0A0A0",
"I+	c #D1D1D1",
"J+	c #D9DBDA",
"K+	c #ABABAB",
"L+	c #C13637",
"M+	c #CB3939",
"N+	c #C53A39",
"O+	c #C2C3C2",
"P+	c #ADADAD",
"Q+	c #C83B39",
"R+	c #CE3A3A",
"S+	c #B0B0B0",
"T+	c #F8F9F8",
"U+	c #CDCDCD",
"V+	c #C6C6C6",
"W+	c #AAAAAA",
"X+	c #A5A5A5",
"Y+	c #CA3B3A",
"Z+	c #D03B3B",
"`+	c #F2F1F1",
" @	c #CCCECC",
".@	c #B9BAB9",
"+@	c #D0D1D0",
"@@	c #CF3A3B",
"#@	c #D43C3C",
"$@	c #C93D3C",
"%@	c #E2E1E2",
"&@	c #BBBCB9",
"*@	c #DFDEDF",
"=@	c #D9DAD9",
"-@	c #AAAAA8",
";@	c #C3C3C4",
">@	c #D23C3B",
",@	c #D73E3D",
"'@	c #CC3F3E",
")@	c #9D9C9B",
"!@	c #A6A6A7",
"~@	c #D13C3C",
"{@	c #D43D3C",
"]@	c #D04140",
"^@	c #CE3737",
"/@	c #D13B3B",
"(@	c #C54041",
"_@	c #C33939",
":@	c #D13939",
"<@	c #CC3C3E",
"[@	c #CF3939",
"}@	c #B23B3D",
"|@	c #D03938",
"1@	c #BF3D3C",
"2@	c #CD3F3F",
"3@	c #B93B3C",
"                                                                                                                                                                                            ",
"                                                                                                                                                                                            ",
"                                                                                                                                                                                            ",
"                                                                                                                                                                                            ",
"                                                                                                                                                                                            ",
"                                                                                                                                                                      .                     ",
"                                                                                                                                                                    + @     # $ % & * = -   ",
"                                                                                                                                                                  ; > ,   ' ) ! ~ { ] ^ /   ",
"    (                                                                                                                                                           _ : < [ } | 1 2 3 4 5 6     ",
"    7 (                                                                                                                                                           8 9 0 a       b c d e     ",
"      f f g                                                                                                                                                       h i j         k l m       ",
"      n o o p                                                                                                                                                     q r s         t u v       ",
"        f o p                                                                                                                                                   w x y z         A B C       ",
"        p f D                                                                                                                                                     E y F         G H I       ",
"        p f J                                                                                                     K L         M p p N N O N O P                   Q y R         S T U       ",
"        p V (                                                                                                   W X Y Z         ` `  ...( ( +.                    @.#.$.        A A %.      ",
"        ( n &.                      *.V J =.      *.g o n *.-.+.;.            >.( ,.'.).                      7 !.~.{.].        *.>.7                             ^./.(.        _.:.<.      ",
"        V +.[.                      ` &.~.        }.|.[.f  .1.2.      7 3.  *.+.4.5.6.                  ` J 7.8.9.0.a.b.        c.c.>.                            d.e.f.g.      h.i.j.      ",
"        1.c.1.                      +.k.l.        m.n.o.m.    p.      *.q.+.8.q.r.].                      ,.N 1.s.t.u.v.        c.w.x.                            y.(.z.A.f.B.C.D.E.F.      ",
"        2.2.G.H.                    I.W J.        b.b.=.              7 K.L.                            w.` f [.    M.=.        c.w.N.    L.                    O.P.~ B & (.Q.R.S.T.U.V.    ",
"        8.=.>.                      W.~.X.        8.M.2.              ,. .                                *.[.Y.    w.G.      n =.>.Z.`. +*.                .+++@+#+$+%+&+*+=+-+;+>+,+      ",
"        ` w.+.                      a.W.5.        ` '+>.              p o J                               c.+.O     +.H.      b.1.` o &.&.[.              )+!+    ~+{+]+  ^+/+(+_+:+        ",
"        <+H.=.                      u.q.n.[+      }+*.1.` V  .        N |+N (                             '++.`     >.w.>.      f &.1+    r.                      2+3+4+      5+Q.          ",
"        +.Z 6+        7+            M ].r.n.      7 o f ` +.'+          |+O O D 8+                      I.c.2.[.  9+0+w.M.      N a+7+                            b+c+d+                    ",
"        e+|.4.          f+].        M.g+h+        i+w.J >.w.2.            j+N o k+l+                      '+H.&.    m++.        w.W.n.                          n+o+p+q+                    ",
"        r+s+t+            u+o.      c.G.H.        a.4.v.                      v+*.+.w+                    G.M.`     x+`         Z m.s+                            y+z+A+                    ",
"        t.B+X.              4.      1.` 7 C+      q.D+M.                        p.1. .                    G.2.L.    p (  .      3.].u.                            E+F+G+                    ",
"        B+H+5.Z             I+L.    *.V  .n       J+M 2.                        K+m.J                   M.2.2.M   a.( D N       =.Z I+                            L+M+N+                    ",
"        8.( f ,.8.*.+.    Z h+K.    L.( J c.      l+2.+.                        O+t++.                    2.3.M a.P+o.O M.      8.3.v.                            Q+R+-                     ",
"      [.&.f &. .2.H.w.'++.L.v.b.      f p         &.7 1.        S+    T+      L.U+V+g+                      c.].m.W+X+          >.M.h+                            Y+Z+N+                    ",
"    8.8.=.g+M M.8.+.G.2.w.H.M.H.      H.D         f 1.` 1.2.M.b.~.    `+N n >.g+b.P t.                         @.@K+U+          c.M.+@                            @@#@$@                    ",
"  '+                4.b.h+=.w.3.        7         8.*.7 8.%@G.3.{.&@    G.1.8.*@=@                              -@h+            >.K.;@                            >@,@'@                    ",
"                                                                                                                )@              2.4.!@                            ~@{@]@                    ",
"                                                                                                                                3.0.r.                            ^@/@(@                    ",
"                                                                                                                                I+].                            _@:@<@                      ",
"                                                                                                                                K.                              @@[@}@                      ",
"                                                                                                                                v.                              |@1@                        ",
"                                                                                                                                                              2@3@                          ",
"                                                                                                                                                                                            ",
"                                                                                                                                                                                            ",
"                                                                                                                                                                                            ",
"                                                                                                                                                                                            ",
"                                                                                                                                                                                            ",
"                                                                                                                                                                                            ",
"                                                                                                                                                                                            "};
